X: 22374
T: Lad O'Beirne's
R: reel
M: 4/4
K: Gdorian
dc|BG~G2 DGBG|AF~F2 AdcA|GDGA BABc|dggf g2ag|
~f3g fdcB|AF~F2 cFAc|dggf d2dc|BGAF G2:|
|:Bd|g2gf gbag|~f3d cFAc|~d3e f2fd|cF (3AGF CFAF|
DGGF GABc|AF~F2 cFAc|dggf d2dc|BGAF G2:|

